X:601
T: Maria wollt' auswandern (298a), S. 616f
N: T0488
O: Luxemburg
S: Singendes Volk, Esch-Alzette 1937 posth.]
N: Reuland, fff Katharina Prim, 1910;
N: (298b)- Beidweiler, hhh Johann Didier, 4.1.1931;
N: (298c)- Junglinster, fff Schwester des Verfassers, um 1890
R: geistliches Lied]
M: 4/4
L: 1/8
K: G
D2 | G2G2A2d2 | B3AG2
B2 | A2G2AGFE | D2z4
D2 | G2G2AAd2 | d2z4
cB | AGGAB2A2 | G2z4

